public_html/images/ico/twitter.svg

<svg xmlns="http://www.w3.org/2000/svg" width="411" height="342" viewBox="0 0 411 342" xmlns:xlink="http://www.w3.org/1999/xlink"><defs><path id="a" d="M.06 341.94V.827h410.095V341.94z"/></defs><g fill="none" fill-rule="evenodd"><mask id="b" fill="#fff"><use xlink:href="#a"/></mask><path fill="#759EC7" d="M403.632 40.516a162.414 162.414 0 0 1-28.28 9.537 88.177 88.177 0 0 0 23.275-37.067c1.295-4.051-3.105-7.554-6.763-5.385a163.188 163.188 0 0 1-43.235 17.862 11.02 11.02 0 0 1-2.702.336c-2.766 0-5.455-1.027-7.57-2.891C322.201 8.669 301.422.827 279.849.827c-9.335 0-18.76 1.455-28.014 4.325-28.672 8.893-50.795 32.544-57.736 61.724-2.604 10.945-3.309 21.9-2.097 32.56a3.166 3.166 0 0 1-.797 2.481 3.278 3.278 0 0 1-2.753 1.091C125.69 97.177 69.094 66.94 29.089 17.868c-2.04-2.503-5.952-2.196-7.578.593-7.834 13.44-11.974 28.812-11.974 44.454 0 23.972 9.631 46.563 26.36 63.032a79.24 79.24 0 0 1-20.169-7.808c-3.06-1.7-6.825.485-6.868 3.985-.438 35.612 20.412 67.3 51.646 81.569a79.567 79.567 0 0 1-16.786-1.399c-3.446-.658-6.341 2.611-5.271 5.952 10.138 31.651 37.39 54.981 70.002 60.278-27.066 18.169-58.585 27.753-91.39 27.753l-10.227-.006c-3.151 0-5.816 2.054-6.619 5.106-.791 3.006.666 6.177 3.353 7.74C40.534 330.63 82.699 342 125.523 342c37.485 0 72.549-7.439 104.219-22.109 29.033-13.449 54.689-32.674 76.255-57.141 20.09-22.792 35.8-49.103 46.692-78.201 10.383-27.737 15.871-57.333 15.871-85.589v-1.346c-.001-4.537 2.051-8.806 5.631-11.712a174.776 174.776 0 0 0 35.16-38.591c2.573-3.849-1.485-8.673-5.719-6.795" mask="url(#b)"/></g></svg>

<svg xmlns="http://www.w3.org/2000/svg" width="411" height="342" viewBox="0 0 411 342" xmlns:xlink="http://www.w3.org/1999/xlink">
  <defs>
    <polygon id="a" points=".06 341.94 .06 .827 410.155 .827 410.155 341.94"/>
  </defs>
  <g fill="none" fill-rule="evenodd">
    <mask id="b" fill="white">
      <use xlink:href="#a"/>
    </mask>
    <path fill="#759EC7" d="M403.632,40.516 C394.519,44.557 385.059,47.745 375.352,50.053 C386.048,39.889 394.09,27.176 398.627,12.986 C399.922,8.935 395.522,5.432 391.864,7.601 C378.36,15.611 363.814,21.62 348.629,25.463 C347.748,25.686 346.839,25.799 345.927,25.799 C343.161,25.799 340.472,24.772 338.357,22.908 C322.201,8.669 301.422,0.827 279.849,0.827 C270.514,0.827 261.089,2.282 251.835,5.152 C223.163,14.045 201.04,37.696 194.099,66.876 C191.495,77.821 190.79,88.776 192.002,99.436 C192.141,100.661 191.562,101.516 191.205,101.917 C190.578,102.62 189.689,103.023 188.766,103.023 C188.663,103.023 188.557,103.018 188.452,103.008 C125.69,97.177 69.094,66.94 29.089,17.868 C27.049,15.365 23.137,15.672 21.511,18.461 C13.677,31.901 9.537,47.273 9.537,62.915 C9.537,86.887 19.168,109.478 35.897,125.947 C28.862,124.279 22.053,121.652 15.728,118.139 C12.668,116.439 8.903,118.624 8.86,122.124 C8.422,157.736 29.272,189.424 60.506,203.693 C59.877,203.708 59.248,203.715 58.618,203.715 C53.667,203.715 48.654,203.237 43.72,202.294 C40.274,201.636 37.379,204.905 38.449,208.246 C48.587,239.897 75.839,263.227 108.451,268.524 C81.385,286.693 49.866,296.277 17.061,296.277 L6.834,296.271 C3.683,296.271 1.018,298.325 0.215,301.377 C-0.576,304.383 0.881,307.554 3.568,309.117 C40.534,330.63 82.699,342 125.523,342 C163.008,342 198.072,334.561 229.742,319.891 C258.775,306.442 284.431,287.217 305.997,262.75 C326.087,239.958 341.797,213.647 352.689,184.549 C363.072,156.812 368.56,127.216 368.56,98.96 L368.56,97.614 C368.559,93.077 370.611,88.808 374.191,85.902 C387.776,74.872 399.606,61.888 409.351,47.311 C411.924,43.462 407.866,38.638 403.632,40.516" mask="url(#b)"/>
  </g>
</svg>
